src/icons/globe.svg

<svg width="16" height="16" viewBox="0 0 16 16" fill="none" xmlns="http://www.w3.org/2000/svg">
<path fill-rule="evenodd" clip-rule="evenodd" d="M8.5 1C9.78557 1 11.0423 1.38123 12.1112 2.09546C13.1801 2.80969 14.0132 3.82483 14.5052 5.01257C14.8972 5.95898 15.0586 6.98108 14.9811 7.99524C14.8962 9.10645 14.5267 10.1801 13.9046 11.1112C13.1903 12.1802 12.1752 13.0133 10.9874 13.5052C9.79973 13.9972 8.4928 14.126 7.23192 13.8751C5.97104 13.6243 4.81285 13.0052 3.90381 12.0962C2.99476 11.1871 2.3757 10.0289 2.12489 8.76807C1.8741 7.5072 2.00282 6.20032 2.49478 5.01257C2.98675 3.82483 3.81987 2.80969 4.88879 2.09546C5.95772 1.38123 7.21443 1 8.5 1ZM13.394 5C12.7527 3.75281 11.6613 2.79626 10.3412 2.32373C10.7845 3.16357 11.106 4.0647 11.294 5H13.394ZM13.9765 7.99524C13.9918 7.83081 13.9997 7.66553 14 7.5C13.999 6.99255 13.9273 6.48767 13.787 6H11.445C11.477 6.33105 11.5 6.66406 11.5 7C11.4997 7.12598 11.4971 7.25195 11.4921 7.37769C11.4917 7.38623 11.4914 7.39417 11.4911 7.40271C11.4834 7.58289 11.4709 7.76331 11.4536 7.94263C11.4192 8.29749 11.366 8.65039 11.294 9H13.787C13.8815 8.67139 13.9449 8.33496 13.9765 7.99524ZM10.4408 7.99524C10.4428 7.97815 10.4447 7.96106 10.4466 7.94397C10.4808 7.63074 10.4987 7.31567 10.5 7C10.4933 6.66553 10.4679 6.33167 10.424 6H6.576C6.53207 6.33167 6.5067 6.66553 6.5 7C6.50274 7.67334 6.5809 8.34412 6.733 9H10.267C10.3439 8.66833 10.4019 8.33289 10.4408 7.99524ZM10.249 5C10.1607 4.60352 10.0465 4.21399 9.90597 3.83447C9.67117 3.2019 9.36551 2.59644 8.994 2.03003C8.83 2.01599 8.666 2 8.5 2C8.39551 2 8.29182 2.00635 8.18843 2.01453C8.12755 2.01929 8.06677 2.02478 8.00599 2.03003L8 2.03918C7.40887 2.94299 6.98573 3.9458 6.75101 5H10.249ZM5.70601 5C5.89779 4.0647 6.22313 3.16174 6.672 2.31897C5.34599 2.78979 4.24946 3.74866 3.606 5H5.70601ZM3.213 6C3.07269 6.48767 3.00101 6.99255 3 7.5C3.00101 8.00745 3.07269 8.51233 3.213 9H5.70601C5.57043 8.34192 5.50142 7.67188 5.5 7C5.5 6.66406 5.52301 6.33105 5.55501 6H3.213ZM5.96701 10H3.60701C3.98501 10.7384 4.52472 11.382 5.18594 11.8829C5.84715 12.3838 6.61285 12.729 7.42601 12.8931C6.78598 12.0142 6.2932 11.0371 5.96701 10ZM8.5 12.644C9.13943 11.8531 9.63927 10.959 9.97799 10H7.022C7.36075 10.959 7.86058 11.8531 8.5 12.644ZM11.033 10C10.7068 11.0371 10.214 12.0142 9.574 12.8931C10.3872 12.729 11.1528 12.3838 11.8141 11.8829C12.4753 11.382 13.015 10.7384 13.393 10H11.033Z" fill="white"/>
</svg>

<svg width="16" height="16" xmlns="http://www.w3.org/2000/svg"><path fill-rule="evenodd" clip-rule="evenodd" d="M8.5 1a6.5 6.5 0 1 1 0 13 6.5 6.5 0 0 1 0-13zm4.894 4a5.527 5.527 0 0 0-3.053-2.676c.444.84.765 1.74.953 2.676h2.1zm.582 2.995A5.11 5.11 0 0 0 14 7.5a5.464 5.464 0 0 0-.213-1.5h-2.342c.032.331.055.664.055 1a10.114 10.114 0 0 1-.206 2h2.493c.095-.329.158-.665.19-1.005zm-3.535 0l.006-.051A9.04 9.04 0 0 0 10.5 7a8.994 8.994 0 0 0-.076-1H6.576A8.82 8.82 0 0 0 6.5 7a8.98 8.98 0 0 0 .233 2h3.534c.077-.332.135-.667.174-1.005zM10.249 5a8.974 8.974 0 0 0-1.255-2.97C8.83 2.016 8.666 2 8.5 2a3.62 3.62 0 0 0-.312.015l-.182.015L8 2.04A8.97 8.97 0 0 0 6.751 5h3.498zM5.706 5a9.959 9.959 0 0 1 .966-2.681A5.527 5.527 0 0 0 3.606 5h2.1zM3.213 6A5.48 5.48 0 0 0 3 7.5 5.48 5.48 0 0 0 3.213 9h2.493A10.016 10.016 0 0 1 5.5 7c0-.336.023-.669.055-1H3.213zm2.754 4h-2.36a5.515 5.515 0 0 0 3.819 2.893A10.023 10.023 0 0 1 5.967 10zM8.5 12.644A8.942 8.942 0 0 0 9.978 10H7.022A8.943 8.943 0 0 0 8.5 12.644zM11.033 10a10.024 10.024 0 0 1-1.459 2.893A5.517 5.517 0 0 0 13.393 10h-2.36z"/></svg>
